X:1
T:Veni sancte Spiritus
T:Jan Tollius
T:Veni sancte Spiritus
C:Jan Tollius
%%score [ 1 2 3 ]
L:1/8
Q:1/4=65
M:4/4
K:Bb
V:1 treble nm="Soprano" snm="S"
V:2 treble nm="Alt" snm="A"
V:3 bass nm="Bass" snm="B"
V:1
 C3 D EFGA | =B c2 B c4 | z4 g3 f/e/ | dc d2 c4 | z2 G3 A Bc | d4 =e4 | f3 d2 c>BB/A/4G/4 | %7
w: Ve- * * * * *|* * * ni,|Ve- * *|* * * ni,|Ve- * * *|* ni,|san- cte Spi- * * * *|
 A3 A G4 | =e4 e4 | =e4 e4 | f4 d4 | d4 e4 | c6 c2 | =B4 z4 | z d G2 d2 z g | ^f2 g2 z ddd | %16
w: * ri- tus,|Re- ple|tu- o-|rum cor-|da fi-|de- li-|um,|Et tu- i a-|mo- ris in e- is|
 d3 c/B/ A>G A/G/A/B/ | c3 B/A/ G>F G/F/G/A/ | B4 F3 G | A>G A2 =B4 | z4 z d G2 | d2 z g ^f2 g2 | %22
w: i- * * * * * * * *||* gnem ac-|cen- * * de,|Et tu-|i a- mo- ris|
 z ddd d3 c/B/ | A>G A/G/A/B/ c3 B/A/ | G>F G/F/G/A/ B4 | F3 G A>G A2 | =B8 || z8 | %28
w: in e- is i- * *|||gnem ac- cen- * *|de.||
 z G/A/ B>B B/B<GF/4E/4D- | D/C/ C2 =B, C4 | C3 C G/F/G/A/ =B>c | G2 z G/A/ B>B B/B/G- | %32
w: cunc- tos sa- cer- do- tes ad- * * *|* * * ju- va,|San- cte Spi- * * * * ri-|tus, cunc- tos sa- cer- do- tes ad-|
 G/F/4E/4D/C/ D>D C2 z c | c2 =B2 z4 | z4 AB G>G | A4 z2 F>F | FG A2 =B4 | %37
w: * * * * * * ju- va, et|e- is|me- cum tri- bu-|e se- cu-|lo- rum re- gna,|
 z2 E3/2F/4G/4 _A/G/F/E/ D2 | C2 z E E2 D2 | =E3/2F/4G/4 FE D2 C2 | =EF E>E F2 z c- | %41
w: A- * * * * * * *|men. et e- is|u- * * * * * na|me- cum tri- bu- e se-|
 c/c/c BA>G G2 ^F | G4 z2 c3/2d/4e/4 | d/c/ c2 =B c4- | c4 z4 |] %45
w: * cu- lo- rum re- * * *|gna, A- * *|* * * * men.|_|
V:2
 z4 G3 F/E/ | DC D2 C4 | z2 C3 D EF | G4 G4 | C3 D EFGA | =B c2 B c4 | A3 B BA G2- | G2 ^F2 G4 | %8
w: Ve- * *|* * * ni,|Ve- * * *|* ni,|Ve- * * * * *|* * * ni,|san- cte Spi- * *|* ri- tus,|
 G4 G4 | G4 G4 | A4 F4 | F4 G4 | E4 F4 | G4 z =B c2 | =BB c2 Gd e2 | dd G2 d2 z2 | z FFF F3 E/D/ | %17
w: Re- ple|tu- o-|rum cor-|da fi-|de- li-|um, Et tu-|i a- mo- ris Et tu-|i a- mo- ris|in e- is i- * *|
 C>B, C/B,/C/D/ E3 D/C/ | B,>A, B,/A,/B,/C/ D2 DE | ^F G2 F G4 | z =B c2 BB c2 | Gd e2 dd G2 | %22
w: |* * * * * * * gnem ac-|cen- * * de,|Et tu- i a- mo-|ris Et tu- i a- mo-|
 d2 z2 z FFF | F3 E/D/ C>B, C/B,/C/D/ | E3 D/C/ B,>A, B,/A,/B,/C/ | D2 DE ^F G2 F | G8 || %27
w: ris in e- is|i- * * * * * * * *||* gnem ac- cen- * *|de.|
 C3 C G/F/G/A/ =B>c | G2 z G/A/ B>B B/B/G- | G/F/4E/4D/C/ D>D C4 | z8 | z G/A/ B>B B/B<GF/4E/4D- | %32
w: San- cte Spi- * * * * ri-|tus, cunc- tos sa- cer- do- tes ad-|* * * * * * ju- va,||cunc- tos sa- cer- do- tes ad- * * *|
 D/C/ C2 =B, C2 z E | E2 D2 =E3/2F/4G/4 FE | D2 C2 =EF E>E | F2 z c>cc BA- | A/G/ G2 ^F G4 | %37
w: * * * ju- va, et|e- is u- * * * *|* na me- cum tri- bu-|e se- cu- lo- rum re-|* * * * gna,|
 z2 c3/2d/4e/4 d/c/ c2 =B | c2 z c c2 =B2 | z8 | AB G>G A4 | z2 F>F FG A2 | =B4 z2 E3/2F/4G/4 | %43
w: A- * * * * * *|men. et e- is||me- cum tri- bu- e|se- cu- lo- rum re-|gna, A- * *|
 _A/G/F/E/ D2 C4- | C4 z4 |] %45
w: * * * * * men.|_|
V:3
 z2 C,3 D, E,F, | G,4 C,4 | C,3 D, E,F,G,A, | =B, C2 B, C4 | z4 C3 B,/A,/ | G,F, G,2 C,4 | %6
w: Ve- * * *|* ni,|Ve- * * * * *|* * * ni,|Ve- * *|* * * ni,|
 D,4 E,4 | D,3 D, G,,4 | C4 C4 | C4 C4 | F,4 B,4 | B,4 G,4 | _A,6 A,2 | G,4 z G, C,2 | %14
w: san- cte|Spi- ri- tus,|Re- ple|tu- o-|rum cor-|da fi-|de- li-|um, Et tu-|
 G,2 z C =B,2 C2 | z2 z G, G,G, G,2- | G,F,/E,/ D,>C, D,/C,/D,/E,/ F,2- | %17
w: i a- mo- ris|in e- is i-||
 F,E,/D,/ C,>B,, C,/B,,/C,/D,/ E,2- | E,2 B,,3 C, D,2- | D,4 G,,4 | z G, C,2 G,2 z C | %21
w: |* gnem ac- cen-|* de,|Et tu- i a-|
 =B,2 C2 z2 z G, | G,G, G,3 F,/E,/ D,>C, | D,/C,/D,/E,/ F,3 E,/D,/ C,>B,, | %24
w: mo- ris in|e- is i- * * * *||
 C,/B,,/C,/D,/ E,4 B,,2- | B,,C, D,6 | G,,8 || z2 C,3 C, G,/F,/G,/A,/ | =B,>C G,2 z G,/A,/ B,>B, | %29
w: * * * * * gnem|_ ac- cen-|de.|San- cte Spi- * * *|* ri- tus, cunc- tos sa- cer-|
 B,C G,>G, C,4 | z2 C,3 C, G,/F,/G,/A,/ | =B,>C G,2 z G,/A,/ _B,>B, | B,C G,>G, C,2 z C | %33
w: do- tes ad- ju- va,|San- cte Spi- * * *|* ri- tus, cunc- tos sa- cer-|do- tes ad- ju- va, et|
 C2 G,2 C3/2D/4E/4 DC | =B,2 C2 C_B, C>C | F,2 F>F FE D2- | D4 G,4 | %37
w: e- is u- * * * *|* na me- cum tri- bu-|e se- cu- lo- rum re-|* gna,|
 G,3/2A,/4B,/4 C/B,/_A,/G,/ F,2 G,2 | C,2 z C C2 G,2 | C3/2D/4E/4 DC =B,2 C2 | CB, C>C F,2 F>F | %41
w: A- * * * * * * * *|men. et e- is|u- * * * * * na|me- cum tri- bu- e se- cu-|
 FE D6 | G,4 G,3/2A,/4B,/4 C/B,/_A,/G,/ | F,2 G,2 C,4- | C,4 z4 |] %45
w: lo- rum re-|gna, A- * * * * * *|* * men.|_|

